X: 38281
T: St. John's, The
R: mazurka
M: 3/4
K: Dmajor
F/A/d|:f2- fd ec|d4 (3BcB|A2 ^GA BA|G4 E/G/B|
e2- ec dB|c4 (3BcB|1 A2 ^GA BA|F4 F/A/d:|2 A2 ^GA G/F/E|D4 dc||
|:~B2 GB GB|~A2 FA FA|~G2 EF G/F/E|FG A2 dc|
~B2 GB GB|~A2 FA FA|~G2 EF G/F/E|1 D4 dc:|2 D4 F/A/d||

